papirus/32x32/apps/xfce4-systray.svg

<?xml version="1.0" encoding="UTF-8" standalone="no"?>
<svg
   xmlns:dc="http://purl.org/dc/elements/1.1/"
   xmlns:cc="http://creativecommons.org/ns#"
   xmlns:rdf="http://www.w3.org/1999/02/22-rdf-syntax-ns#"
   xmlns:svg="http://www.w3.org/2000/svg"
   xmlns="http://www.w3.org/2000/svg"
   xmlns:sodipodi="http://sodipodi.sourceforge.net/DTD/sodipodi-0.dtd"
   xmlns:inkscape="http://www.inkscape.org/namespaces/inkscape"
   version="1.1"
   id="svg4222"
   viewBox="0 0 32 32.000001"
   height="32"
   width="32"
   inkscape:version="0.91 r13725"
   sodipodi:docname="xfce4-systray.svg">
  <sodipodi:namedview
     pagecolor="#ffffff"
     bordercolor="#666666"
     borderopacity="1"
     objecttolerance="10"
     gridtolerance="10"
     guidetolerance="10"
     inkscape:pageopacity="0"
     inkscape:pageshadow="2"
     inkscape:window-width="1600"
     inkscape:window-height="843"
     id="namedview15"
     showgrid="false"
     inkscape:zoom="19.67627"
     inkscape:cx="16"
     inkscape:cy="16"
     inkscape:window-x="0"
     inkscape:window-y="0"
     inkscape:window-maximized="1"
     inkscape:current-layer="svg4222" />
  <defs
     id="defs4224" />
  <metadata
     id="metadata4227">
    <rdf:RDF>
      <cc:Work
         rdf:about="">
        <dc:format>image/svg+xml</dc:format>
        <dc:type
           rdf:resource="http://purl.org/dc/dcmitype/StillImage" />
        <dc:title></dc:title>
      </cc:Work>
    </rdf:RDF>
  </metadata>
  <path
     style="fill:#4ab3e4;fill-opacity:1;stroke:none"
     d="M 3.4003906 4 C 2.6247906 4 2 4.6247906 2 5.4003906 L 2 6.8007812 L 2 23 L 30 23 L 30 6.8007812 L 30 5.4003906 C 30 4.6247906 29.375209 4 28.599609 4 L 3.4003906 4 z "
     id="rect4203" />
  <path
     inkscape:connector-curvature="0"
     style="fill:#4d4d4d;fill-opacity:1;stroke:none"
     d="M 3.4,29 C 2.6244,29 2,28.3756 2,27.6 l 0,-4.6 28,0 0,4.6 c 0,0.7756 -0.6244,1.4 -1.4,1.4 z"
     id="rect3328" />
  <circle
     r="1.5"
     cy="26.499983"
     cx="17.5"
     id="circle4248"
     style="opacity:0.2;fill:#000000;fill-opacity:1;stroke:none;stroke-width:2;stroke-linecap:round;stroke-linejoin:round;stroke-miterlimit:4;stroke-dasharray:none;stroke-opacity:1" />
  <circle
     style="opacity:0.2;fill:#000000;fill-opacity:1;stroke:none;stroke-width:2;stroke-linecap:round;stroke-linejoin:round;stroke-miterlimit:4;stroke-dasharray:none;stroke-opacity:1"
     id="circle4250"
     cx="22.500002"
     cy="26.499983"
     r="1.5" />
  <circle
     r="1.5"
     cy="26.499983"
     cx="27.5"
     id="circle4252"
     style="opacity:0.2;fill:#000000;fill-opacity:1;stroke:none;stroke-width:2;stroke-linecap:round;stroke-linejoin:round;stroke-miterlimit:4;stroke-dasharray:none;stroke-opacity:1" />
  <circle
     style="opacity:0.72000002;fill:#ffffff;fill-opacity:1;stroke:none;stroke-width:2;stroke-linecap:round;stroke-linejoin:round;stroke-miterlimit:4;stroke-dasharray:none;stroke-opacity:1"
     id="path4136"
     cx="17.5"
     cy="25.499983"
     r="1.5" />
  <circle
     r="1.5"
     cy="25.499983"
     cx="22.500002"
     id="circle4237"
     style="opacity:0.72000002;fill:#ffffff;fill-opacity:1;stroke:none;stroke-width:2;stroke-linecap:round;stroke-linejoin:round;stroke-miterlimit:4;stroke-dasharray:none;stroke-opacity:1" />
  <circle
     style="opacity:0.72000002;fill:#ffffff;fill-opacity:1;stroke:none;stroke-width:2;stroke-linecap:round;stroke-linejoin:round;stroke-miterlimit:4;stroke-dasharray:none;stroke-opacity:1"
     id="circle4239"
     cx="27.5"
     cy="25.499983"
     r="1.5" />
  <path
     inkscape:connector-curvature="0"
     style="opacity:0.1;fill:#ffffff;fill-opacity:1;stroke:none"
     d="M 3.4003906,4 C 2.6247906,4 2,4.6247906 2,5.4003906 l 0,1 C 2,5.6247906 2.6247906,5 3.4003906,5 L 28.599609,5 C 29.375209,5 30,5.6247906 30,6.4003906 l 0,-1 C 30,4.6247906 29.375209,4 28.599609,4 L 3.4003906,4 Z"
     id="path4257" />
  <path
     style="fill:#000000;fill-opacity:1;stroke:none;opacity:0.3"
     d="M 2 26.599609 L 2 27.599609 C 2 28.375209 2.6247906 29 3.4003906 29 L 28.599609 29 C 29.375209 29 30 28.375209 30 27.599609 L 30 26.599609 C 30 27.375209 29.375209 28 28.599609 28 L 3.4003906 28 C 2.6247906 28 2 27.375209 2 26.599609 z "
     id="path4155" />
</svg>

<?xml version="1.0" encoding="UTF-8" standalone="no"?>
<svg id="svg4222" xmlns:rdf="http://www.w3.org/1999/02/22-rdf-syntax-ns#" xmlns="http://www.w3.org/2000/svg" height="32" width="32" version="1.1" xmlns:cc="http://creativecommons.org/ns#" viewBox="0 0 32 32.000001" xmlns:dc="http://purl.org/dc/elements/1.1/">
 <metadata id="metadata4227">
  <rdf:RDF>
   <cc:Work rdf:about="">
    <dc:format>image/svg+xml</dc:format>
    <dc:type rdf:resource="http://purl.org/dc/dcmitype/StillImage"/>
    <dc:title/>
   </cc:Work>
  </rdf:RDF>
 </metadata>
 <path id="rect4203" fill="#4ab3e4" d="m3.4004 4c-0.7756 0-1.4004 0.6248-1.4004 1.4004v1.4004 16.199h28v-16.199-1.4006c0-0.7756-0.625-1.4004-1.4-1.4004h-25.2z"/>
 <path id="rect3328" fill="#4d4d4d" d="m3.4 29c-0.7756 0-1.4-0.624-1.4-1.4v-4.6h28v4.6c0 0.7756-0.6244 1.4-1.4 1.4z"/>
 <circle id="circle4248" opacity=".2" cx="17.5" cy="26.5" r="1.5"/>
 <circle id="circle4250" opacity=".2" cy="26.5" cx="22.5" r="1.5"/>
 <circle id="circle4252" opacity=".2" cx="27.5" cy="26.5" r="1.5"/>
 <circle id="path4136" opacity="0.72" cy="25.5" cx="17.5" r="1.5" fill="#fff"/>
 <circle id="circle4237" opacity="0.72" cx="22.5" cy="25.5" r="1.5" fill="#fff"/>
 <circle id="circle4239" opacity="0.72" cy="25.5" cx="27.5" r="1.5" fill="#fff"/>
 <path id="path4257" opacity=".1" d="m3.4004 4c-0.7756 0-1.4004 0.6248-1.4004 1.4004v1c0-0.7756 0.6248-1.4004 1.4004-1.4004h25.2c0.775 0 1.4 0.6248 1.4 1.4004v-1c0-0.7756-0.625-1.4004-1.4-1.4004h-25.2z" fill="#fff"/>
 <path id="path4155" opacity=".2" d="m2 27.6v1c0 0.775 0.6248 1.4 1.4004 1.4h25.2c0.775 0 1.4-0.625 1.4-1.4v-1c0 0.775-0.625 1.4-1.4 1.4h-25.2c-0.7752 0-1.4-0.625-1.4-1.4z"/>
</svg>
